X: 597
T: Johnny Cope
C:Traditional
B: good tune book
B: tunes
M:2/4
R: polka
Q: 1/4=100
K:Adorian
V:1 
|:B|"Am" EA A/B/c/d/|eA BA/G/|"G" EG G/A/B/c/|dG BA/G/|
 "Am"EA A/G/A/B/|"C"c/B/c/d/ ed/c/|"G"Bg e/d/c/B/|"Am" cA A:|
 |:d|"Am"ea ea|ea g/f/e/d/|"G"Bg Bg|Bg g/f/e/d/|
 "Am"ea af|"C"ge d/e/d/c/|"G"Bg e/d/c/B/|"Am"cA A:|
W: The drums of war were sounding far,
W: When Johnnie Cope cam tae Dunbar,
W: When Johnnie Cope cam tae Dunbar,
W: Upon a misty Morning
W: 
W: Cope Sent a a Message tae Dunbar
W: Said; 'Charlie meet me if you daur,
W: 'And I'll learn you the arts of war,
W: 'If you'll meet me in the morning'
W: 
W: Chorus:
W: Hey Johnnie Cope are you wauking yet,
W: Or are your drums a- beating yet?
W: If you were wauking I would wait,
W: Tae gang tae The Coals in the morning
W: 
W: When Charlie looked this letter upon,
W: He drew his sword the scabbard from,
W: Come follow me my merry men,
W: And we'll meet Johnnie Cope in the morning.
W: 
W: When Johnnie Cope he heard o' this,
W: He thought it wouldna be amiss,
W: To hae a horse in readiness,
W: To flee awa' inthe morning.
W: 
W: Fye now Johnnie, get up and run,
W: The Highland bagpipes mak a din,
W: It's better tae sleep in a hale skin.
W: For 'twill be a bloody morning.
W: 
W: When Johnnie Cope tae Dunbar came,
W: They spiered at him, 'where's a' your men?'
W: 'The Deil confound me gin I ken,
W: For I left them a this morning.'
W: 
W: Now Jonnie troth, ye were na blate,
W: Tae come wi' news o' your ain defeat,
W: And leave your men in sic a straight
W: So early in the morning.
W: 
W: 'Faith', quo Johnnie, 'I had sic fegs,
W: Wi' their claymores and their philabegs,
W: If I face them again Deil brak ma legs,
W: So I wish you a' good morning.'
% abcbook-tune_id 63dce5b0c6d678718ffb8439
% abcbook-tune_composer_id 
% abcbook-link-0 https://www.youtube.com/watch?v=EeIufFgQf44
% abcbook-boost 18
% abcbook-difficulty 0
% abcbook-tags good tune book
% abcbook-tablature 
% abcbook-transpose 
% abcbook-tuning 
% abcbook-lastupdated 1675433226958
% abcbook-soundfonts 
% abcbook-repeats 1


